local/templates/main/img/svg/menubar.svg

<svg width="24" height="14" fill="none" xmlns="http://www.w3.org/2000/svg"><path d="M24 1.5H0V0h24v1.5zm0 12H0V12h24v1.5zm0-6.01172H0V6h24v1.48828z" fill="#2B2B2B"/></svg>

<svg width="24" height="14" viewBox="0 0 24 14" fill="none" xmlns="http://www.w3.org/2000/svg">
<path d="M24 1.5H0V0H24V1.5ZM24 13.5H0V12H24V13.5ZM24 7.48828H0V6H24V7.48828Z" fill="#2B2B2B"/>
</svg>
